X: 22
T:VALSE A 5 TEMPS
M:5/4
L:1/8
Q:1/4=90
C:Yves BELOTTEAU
K:C
|:cBAE Ac3/2B/2A EA|GABE BABc Ec|cBAE Ac3/2B/2A EA|GABE Bc3/2B/2A EA:|!
|:defd Bdfe cA|BcB^G E^GBA Bc|defa agfe cA|BcB^G Ec3/2B/2A AA:|
